src/icon.svg

<?xml version="1.0" encoding="UTF-8"?>
<svg xmlns="http://www.w3.org/2000/svg" viewBox="0 0 26 26" enable-background="new 0 0 26 26">
    <path d="M 17 0 C 14.8 0 12.6875 0.7875 11.1875 2.1875 C 11.7875 2.0875 12.4 2 13 2 C 13.8 2 14.5125 2.0875 15.3125 2.1875 C 15.8125 2.0875 16.4 2 17 2 C 20.9 2 24 5.1 24 9 C 24 9.6 23.9125 10.1875 23.8125 10.6875 C 24.0125 11.3875 24 12.2 24 13 C 24 13.6 23.9125 14.2125 23.8125 14.8125 C 25.2125 13.3125 26 11.2 26 9 C 26 4 22 0 17 0 z M 13 4 C 10.8 4 8.6875 4.7875 7.1875 6.1875 C 7.7875 6.0875 8.4 6 9 6 C 9.8 6 10.5125 6.0875 11.3125 6.1875 C 11.8125 6.0875 12.4 6 13 6 C 16.9 6 20 9.1 20 13 C 20 13.6 19.9125 14.1875 19.8125 14.6875 C 20.0125 15.3875 20 16.2 20 17 C 20 17.6 19.9125 18.2125 19.8125 18.8125 C 21.1125 17.2125 22 15.2 22 13 C 22 8 18 4 13 4 z M 9 8 C 4 8 0 12 0 17 C 0 22 4 26 9 26 C 14 26 18 22 18 17 C 18 12 14 8 9 8 z M 9 10 C 12.9 10 16 13.1 16 17 C 16 20.9 12.9 24 9 24 C 5.1 24 2 20.9 2 17 C 2 13.1 5.1 10 9 10 z"/>
</svg>

<?xml version="1.0" encoding="utf-8"?>
<!-- Generator: Adobe Illustrator 24.1.2, SVG Export Plug-In . SVG Version: 6.00 Build 0)  -->
<svg version="1.1" id="Layer_1" xmlns="http://www.w3.org/2000/svg" xmlns:xlink="http://www.w3.org/1999/xlink" x="0px" y="0px"
	 viewBox="0 0 26 26" style="enable-background:new 0 0 26 26;" xml:space="preserve">
<style type="text/css">
	.st0{fill:#FFFFFF;}
</style>
<path class="st0" d="M17,0c-2.2,0-4.3,0.8-5.8,2.2C11.8,2.1,12.4,2,13,2c0.8,0,1.5,0.1,2.3,0.2C15.8,2.1,16.4,2,17,2
	c3.9,0,7,3.1,7,7c0,0.6-0.1,1.2-0.2,1.7C24,11.4,24,12.2,24,13c0,0.6-0.1,1.2-0.2,1.8C25.2,13.3,26,11.2,26,9C26,4,22,0,17,0z M13,4
	c-2.2,0-4.3,0.8-5.8,2.2C7.8,6.1,8.4,6,9,6c0.8,0,1.5,0.1,2.3,0.2C11.8,6.1,12.4,6,13,6c3.9,0,7,3.1,7,7c0,0.6-0.1,1.2-0.2,1.7
	C20,15.4,20,16.2,20,17c0,0.6-0.1,1.2-0.2,1.8c1.3-1.6,2.2-3.6,2.2-5.8C22,8,18,4,13,4z M9,8c-5,0-9,4-9,9s4,9,9,9s9-4,9-9S14,8,9,8
	z M9,10c3.9,0,7,3.1,7,7s-3.1,7-7,7s-7-3.1-7-7S5.1,10,9,10z"/>
</svg>
